assets/images/icon_mob_2.svg

<svg width="22" height="40" viewBox="0 0 22 40" fill="none" xmlns="http://www.w3.org/2000/svg">
<path d="M16.3594 34.2175C16.3594 35.6699 16.3594 37.1233 16.3594 38.5758C16.3594 38.7261 16.3664 38.8785 16.3454 39.0258C16.2502 39.6884 15.8262 39.8628 15.2899 39.4518C14.2304 38.6389 13.1729 37.824 12.1275 36.993C10.9717 36.0759 10.9858 36.0769 9.90321 37.0612C9.05121 37.836 8.17614 38.5838 7.31311 39.3466C7.08457 39.5491 6.85302 39.7726 6.51824 39.6373C6.15638 39.4909 6.15638 39.1501 6.15638 38.8284C6.15438 35.9897 6.15538 33.151 6.15538 30.3123C6.15538 30.1619 6.14435 30.0106 6.15638 29.8612C6.18144 29.5525 6.03008 29.3791 5.76947 29.2297C2.86863 27.5748 1.11951 25.09 0.480005 21.8223C-0.362981 17.5131 1.77506 12.8812 5.60909 10.7412C6.01505 10.5146 6.16841 10.264 6.1644 9.80095C6.14435 6.99534 6.15438 4.18972 6.15438 1.38512C6.15438 1.21772 6.15137 1.05133 6.15939 0.883934C6.17142 0.625324 6.22254 0.375736 6.48516 0.252449C6.74677 0.129158 6.9703 0.242424 7.17679 0.403805C7.95362 1.00923 8.73045 1.61466 9.50728 2.21808C10.0606 2.64809 10.6249 3.06507 11.1672 3.50912C11.4068 3.70458 11.5731 3.70759 11.8097 3.49609C12.8672 2.55086 13.9387 1.62168 15.0082 0.68948C15.2899 0.443901 15.5435 0.0469624 15.9855 0.254451C16.4246 0.460937 16.3574 0.92102 16.3574 1.31696C16.3604 4.23884 16.3664 7.16173 16.3514 10.0836C16.3494 10.5247 16.4697 10.7913 16.8586 11.0579C19.4968 12.8642 21.1708 15.329 21.5597 18.5285C22.097 22.9419 20.3599 26.362 16.7614 28.8819C16.4617 29.0914 16.3494 29.3049 16.3524 29.6577C16.3674 31.1773 16.3584 32.6969 16.3584 34.2165L16.3594 34.2175ZM1.40218 19.9288C1.31297 25.1872 5.62212 29.5104 10.8635 29.5545C16.2281 29.5996 20.5653 25.3225 20.5804 20.001C20.5954 14.6383 16.3384 10.3362 10.9848 10.3242C5.72437 10.3122 1.33502 14.5822 1.40218 19.9288ZM15.2067 10.1207L15.2067 1.92339C14.1031 2.88666 13.0526 3.78778 12.0212 4.71196C11.6684 5.0277 11.3737 5.0277 11.0098 4.73701C9.91223 3.86396 8.80162 3.00894 7.691 2.15292C7.56671 2.0577 7.46948 1.90033 7.27402 1.90835L7.27402 9.91722C9.96035 8.96598 12.5835 9.03915 15.2067 10.1207ZM7.23593 37.9944C8.3716 37.002 9.41206 36.114 10.4264 35.1978C10.8104 34.851 11.1231 34.851 11.52 35.1707C12.4542 35.9255 13.4125 36.6522 14.3607 37.389C14.6304 37.5985 14.903 37.8049 15.2318 38.0565L15.2318 29.7891C15.1536 29.8041 15.0874 29.8061 15.0293 29.8291C12.5605 30.8145 10.0646 30.9027 7.54566 30.0457C7.13469 29.9053 7.23893 30.183 7.23893 30.3704C7.23492 32.2899 7.23693 34.2095 7.23693 36.13C7.23693 36.7094 7.23693 37.2877 7.23693 37.9944L7.23593 37.9944Z" fill="black"/>
<path d="M1.40209 19.9289C1.33493 14.5833 5.72327 10.3122 10.9847 10.3242C16.3383 10.3363 20.5953 14.6384 20.5803 20.001C20.5652 25.3216 16.228 29.5987 10.8634 29.5545C5.62303 29.5104 1.31288 25.1883 1.40209 19.9289ZM18.4563 19.966C18.4513 15.8242 15.1094 12.4623 10.9897 12.4573C6.83589 12.4512 3.50605 15.8031 3.50805 19.989C3.51005 24.0997 6.89102 27.4386 11.0378 27.4245C15.0924 27.4105 18.4603 24.0245 18.4563 19.966Z" fill="black"/>
<path d="M8.15548 23.474C8.2507 22.8906 8.35094 22.215 8.47523 21.5434C8.52936 21.2507 8.45719 21.0412 8.24068 20.8357C7.81668 20.4348 7.41874 20.0068 7.00877 19.5908C6.81732 19.3963 6.6359 19.2009 6.74114 18.8922C6.84539 18.5864 7.09798 18.5353 7.37363 18.4962C7.96703 18.411 8.55742 18.2998 9.15183 18.2246C9.38137 18.1955 9.50065 18.0983 9.59186 17.8928C9.85649 17.2994 10.1422 16.716 10.4178 16.1276C10.5281 15.8931 10.6534 15.6886 10.9581 15.6816C11.2879 15.6736 11.4222 15.8921 11.5395 16.1437C11.8071 16.717 12.0857 17.2854 12.3423 17.8637C12.4396 18.0833 12.5599 18.1935 12.8155 18.2226C13.4269 18.2927 14.0343 18.409 14.6428 18.5022C14.9034 18.5423 15.1269 18.6235 15.2131 18.9102C15.2913 19.1728 15.167 19.3603 14.9976 19.5337C14.5886 19.9507 14.1997 20.3887 13.7647 20.7766C13.475 21.0352 13.4169 21.3048 13.487 21.6617C13.6003 22.233 13.6905 22.8104 13.7777 23.3868C13.8178 23.6504 13.8499 23.923 13.5783 24.1095C13.3066 24.2959 13.0751 24.1706 12.8355 24.0363C12.3564 23.7656 11.8652 23.5171 11.3971 23.2294C11.1114 23.054 10.8769 23.0349 10.5802 23.2194C10.071 23.5351 9.54074 23.8178 9.00748 24.0924C8.49929 24.355 8.13944 24.1235 8.15548 23.474ZM13.5793 19.5758C13.5482 19.5236 13.5171 19.4715 13.486 19.4194C13.1091 19.3563 12.7343 19.26 12.3544 19.238C11.9093 19.2119 11.6587 18.9954 11.4984 18.6005C11.358 18.2557 11.1796 17.9259 10.9711 17.4939C10.7486 17.955 10.5632 18.3038 10.4118 18.6666C10.2685 19.0094 10.0459 19.1929 9.66604 19.23C9.26008 19.269 8.85913 19.3593 8.26774 19.4595C8.6757 19.8314 8.97741 20.112 9.28614 20.3837C9.57382 20.6373 9.68809 20.9229 9.59387 21.3159C9.49563 21.7248 9.46155 22.1488 9.39841 22.5658C9.41845 22.6119 9.4385 22.659 9.45855 22.7051C10.4739 21.7108 11.4913 21.7449 12.5759 22.7643C12.4847 22.1508 12.4526 21.7349 12.3544 21.3359C12.2531 20.9229 12.3764 20.6242 12.6821 20.3636C12.9849 20.106 13.2796 19.8394 13.5783 19.5758H13.5793Z" fill="#FE0000"/>
<path d="M14.4898 19.1839C14.0861 19.5416 13.6878 19.9047 13.2787 20.257C12.8655 20.6119 12.6975 21.0188 12.8357 21.5813C12.9684 22.1246 13.0118 22.6912 13.1351 23.5268C11.6706 22.1397 10.2942 22.0919 8.92193 23.4462C8.89484 23.3834 8.86775 23.3193 8.84065 23.2565C8.92464 22.6885 8.97206 22.111 9.10482 21.554C9.23351 21.0174 9.07772 20.6283 8.68892 20.2843C8.27168 19.9143 7.86391 19.5306 7.31255 19.0255C8.11047 18.8903 8.6537 18.7661 9.20236 18.7128C9.71579 18.6623 10.0165 18.4139 10.2103 17.9456C10.4148 17.4513 10.6668 16.9762 10.9662 16.3482C11.248 16.9366 11.4891 17.3858 11.6788 17.8555C11.8955 18.3947 12.2328 18.6883 12.8357 18.7238C13.3477 18.7538 13.8558 18.8849 14.3651 18.9709C14.4071 19.0419 14.4491 19.1129 14.4911 19.1839H14.4898Z" fill="#FE0000"/>
</svg>

<svg xmlns="http://www.w3.org/2000/svg" width="22" height="40" fill="none"><path fill="#000" d="M16.36 34.218v4.358c0 .15.006.303-.015.45-.095.662-.519.837-1.055.426a233 233 0 0 1-3.162-2.459c-1.156-.917-1.142-.916-2.225.068-.852.775-1.727 1.523-2.59 2.286-.228.202-.46.426-.795.29-.362-.146-.362-.487-.362-.809q-.001-4.257 0-8.516c0-.15-.012-.301 0-.45.025-.31-.126-.483-.387-.632-2.9-1.655-4.65-4.14-5.289-7.408-.843-4.309 1.295-8.94 5.13-11.08.405-.227.558-.478.554-.941-.02-2.806-.01-5.611-.01-8.416 0-.167-.003-.334.005-.501.012-.259.064-.508.326-.632.262-.123.485-.01.692.152l2.33 1.814c.554.43 1.118.847 1.66 1.291.24.196.406.199.643-.013 1.057-.945 2.129-1.874 3.198-2.807.282-.245.536-.642.978-.435.439.207.371.667.371 1.063.003 2.922.01 5.845-.006 8.767-.002.44.119.707.508.974 2.638 1.806 4.312 4.271 4.7 7.47.538 4.414-1.2 7.834-4.798 10.354-.3.21-.412.423-.409.776.015 1.52.006 3.039.006 4.559zM1.401 19.928c-.089 5.26 4.22 9.582 9.462 9.627 5.364.045 9.701-4.232 9.716-9.554.015-5.363-4.242-9.665-9.595-9.677-5.26-.012-9.65 4.258-9.583 9.605m13.805-9.807V1.923c-1.104.964-2.154 1.865-3.186 2.789-.353.316-.647.316-1.011.025-1.098-.873-2.208-1.728-3.319-2.584-.124-.095-.222-.253-.417-.245v8.01c2.686-.952 5.31-.879 7.933.203M7.236 37.994c1.136-.992 2.176-1.88 3.19-2.796.384-.347.697-.347 1.094-.027.934.755 1.893 1.481 2.84 2.218.27.21.543.416.872.667V29.79c-.078.015-.145.017-.203.04-2.469.985-4.964 1.074-7.483.217-.411-.14-.307.137-.307.324q-.004 2.88-.002 5.76z"/><path fill="#000" d="M1.402 19.929c-.067-5.346 4.321-9.617 9.583-9.605 5.353.012 9.61 4.314 9.595 9.677-.015 5.32-4.352 9.598-9.717 9.554-5.24-.045-9.55-4.367-9.46-9.626m17.054.037c-.005-4.142-3.347-7.504-7.466-7.509-4.154-.006-7.484 3.346-7.482 7.532.002 4.11 3.383 7.45 7.53 7.435 4.054-.014 7.422-3.4 7.418-7.458"/><path fill="#FE0000" d="M8.155 23.474c.096-.583.196-1.259.32-1.93.054-.293-.018-.503-.234-.708-.424-.401-.822-.83-1.232-1.245-.192-.195-.373-.39-.268-.699.104-.306.357-.357.633-.396.593-.085 1.183-.196 1.778-.271.23-.03.349-.127.44-.332.264-.594.55-1.177.826-1.765.11-.235.235-.44.54-.446.33-.008.464.21.582.462.267.573.546 1.141.802 1.72.098.22.218.33.473.359.612.07 1.22.186 1.828.28.26.04.484.12.57.407.078.263-.046.45-.215.624-.41.417-.798.855-1.233 1.243-.29.258-.348.528-.278.885.113.571.204 1.148.29 1.725.04.263.073.536-.199.723-.271.186-.503.06-.742-.074-.48-.27-.97-.519-1.439-.807-.286-.175-.52-.194-.817-.01-.509.316-1.04.599-1.573.873-.508.263-.868.032-.852-.618m5.424-3.898-.093-.157c-.377-.063-.752-.159-1.132-.181-.445-.026-.695-.243-.856-.637-.14-.345-.318-.675-.527-1.107-.222.461-.408.81-.56 1.173-.143.342-.365.526-.745.563-.406.039-.807.13-1.398.23.408.371.71.652 1.018.924.288.253.402.539.308.932-.098.409-.132.833-.196 1.25l.06.14c1.016-.995 2.033-.961 3.118.058-.091-.613-.123-1.03-.222-1.428-.1-.413.022-.712.328-.972.303-.258.598-.525.896-.788z"/><path fill="#FE0000" d="M14.49 19.184c-.404.358-.802.72-1.211 1.073-.413.355-.582.762-.443 1.324.132.544.176 1.11.3 1.946-1.465-1.387-2.842-1.435-4.214-.08l-.081-.19c.084-.569.131-1.146.264-1.703.129-.537-.027-.926-.416-1.27-.417-.37-.825-.753-1.376-1.258.797-.136 1.34-.26 1.89-.313.513-.05.814-.3 1.007-.767.205-.495.457-.97.756-1.598.282.589.523 1.038.713 1.508.216.539.554.832 1.157.868.512.03 1.02.16 1.53.247l.125.213z"/></svg>
